X:1
T:Onward and Upward
T:Onward and Upward
T:John Robson Sweney
T:Eliza Edmunds Hewitt, 1890
T:Public Domain Courtesy of the Cyber Hymnal™
T:Public Domain Courtesy of the Cyber Hymnal™
C:John Robson Sweney
Z:Public Domain
Z:Courtesy of the Cyber Hymnal™
%%score ( 1 2 ) ( 3 4 )
L:1/8
Q:1/4=117
M:4/4
K:D
V:1 treble 
V:2 treble 
V:3 bass 
V:4 bass 
V:1
 [FA]2 [FA]2 [FA]2 [FA]2 | [FA]4 [Fd]4 | [Gd]2 [Gc]2 [GB]2 [Gc]2 | [Fd]6 z2 | %4
w: 1.~On- ward still, and|up- ward,|Fol- low ev- er-|more|
w: 2.~On- ward, ev- er|on- ward,|Thro’ the pas- tures|green,|
w: 3.~Up- ward, ev- er|up- ward,|Toward the ra- diant|glow,|
 [DB]2 [DB]2 [DB]2 [DB]2 | [DA]2 [DA]2 D2 D2 | [CG]4 [DF]4 | [CE]6 z2 | [CE]2 [CE]2 [CE]2 [DF]2 | %9
w: Where our might- y|lead- er Goes in|love be-|fore;|“Look- ing un- to|
w: Where the streams flow|soft- ly, Un- der|skies se-|rene;|Or, if need be,|
w: Far a- bove the|val- ley, Where the|mist hangs|low;|On, with songs of|
 [EG]4 [EG]4 | [DF]2 [DF]2 [DF]2 [CG]2 | [DA]6 z2 | [Fd]2 [Fd]2 [Ac]2 [GB]2 | %13
w: Je- sus,”|Reach a help- ing|hand|To a strug- gling|
w: up- ward,|O’er the rock- y|steep,|Trust- ing Him who|
w: glad- ness,|Till the march shall|end,|Where ten thou- sand|
 [FA]2 [FA]2 D2 [DG]2 | [DF]4 [CE]4 | D4 ||"^Refrain" F2 A2 | d8 | c8 | B8 | A8 | %21
w: neigh- bor, Help- ing|him to|stand.||||||
w: guides us, Strong to|save and|keep.|March- ing|on-|ward,|up-|ward,|
w: thou- sand Hal- le-|lu- jahs|blend.||||||
 [CA]2 [CE]2 [CE][DF] [EG]2 | [DF]2 [FA]2 [Fd]2 [Fd]2 | [Ee]4 [^GB]4 | A4 [^GB]2 [=Gc]2 | d8 | c8 | %27
w: ||||||
w: March- ing stea- di- ly,|on- ward, Je- sus|leads the|way; March- ing|on-|ward,|
w: ||||||
 B8 | A8 | [EG]2 [CE]2 [DF]2 [EG]2 | [FA]2 [Fd]2 [Gd]2 [Ge]2 | [Fd]4 c4 | [Fd]6 z2 |] %33
w: ||||||
w: up-|ward,|On- ward un- to|glo- ry, To the|per- fect|day.|
w: ||||||
V:2
 x8 | x8 | x8 | x8 | x8 | x4 D2 D2 | x8 | x8 | x8 | x8 | x8 | x8 | x8 | x4 D2 x2 | x8 | D4 || %16
 F2 A2 | (d2 A2 F2 D2) | (G2 G2 G2 G2) | (G2 G2 G2 G2) | (F2 F2 F2 F2) | x8 | x8 | x8 | A4 x4 | %25
 (d2 A2 F2 D2) | (G2 G2 G2 G2) | (G2 G2 G2 G2) | (F2 F2 F2 F2) | x8 | x8 | x4 (E2 G2) | x8 |] %33
V:3
 [D,D]2 [D,D]2 [D,D]2 [D,D]2 | [D,D]4 [D,A,]4 | A,2 A,2 [A,,A,]2 [A,,A,]2 | [D,A,]6 z2 | %4
w: ~ ~ ~ ~|~ ~|~ ~ ~ ~|~|
 G,2 G,2 G,2 G,2 | [F,A,]2 [F,A,]2 [F,A,]2 [F,A,]2 | [E,A,]4 [D,A,]4 | [A,,A,]6 z2 | %8
w: ~ ~ ~ ~|~ ~ ~ ~|~ ~|~|
 [A,,A,]2 [A,,A,]2 [A,,A,]2 [A,,A,]2 | [A,,A,]4 [C,A,]4 | [D,A,]2 [D,A,]2 [D,A,]2 [E,A,]2 | %11
w: ~ ~ ~ ~|~ ~|~ ~ ~ ~|
 [F,A,]6 z2 | [D,A,]2 [D,A,]2 [D,A,]2 [D,C]2 | [D,D]2 [D,D]2 [G,B,]2 [G,B,]2 | A,4 [A,,G,]4 | %15
w: ~|~ ~ ~ ~|~ ~ ~ ~|~ ~|
 [D,F,]4 || F,2 A,2 | D2 A,2 F,2 D,2 | [E,A,]2 [A,,A,]2 [E,A,]2 [A,,A,]2 | %19
w: ~|March- ing|on- ward, march- ing|on- ward, on- ward|
 [G,B,]2 [A,C]2 [B,D]2 [CE]2 | [DF]2 [A,D]2 [F,D]2 [D,A,]2 | %21
w: Up- ward marching, up-|ward march- ing, ~|
 [A,,A,]2 [A,,A,]2 [A,,A,][A,,A,] [A,,A,]2 | [D,A,]2 [D,A,]2 [D,A,]2 [D,A,]2 | [E,A,]4 [E,D]4 | %24
w: ~ ~ ~ ~ ~|~ ~ ~ ~|~ ~|
 [A,C]4 [A,D]2 [A,E]2 | D2 A,2 F,2 D,2 | [E,A,]2 [A,,A,]2 [E,A,]2 [A,,A,]2 | %27
w: ~ ~ ~|on- ward, marching, on-|ward, on- ward, up-|
 [G,B,]2 [A,C]2 [B,D]2 [CE]2 | [DF]2 [A,D]2 [F,D]2 [D,A,]2 | [A,,A,]2 [A,,A,]2 [A,,A,]2 [A,,C]2 | %30
w: ward, march- ing up-|ward, up- ward, *||
 [D,D]2 [D,A,]2 [G,B,]2 [G,_B,]2 | A,4 [A,,A,]4 | [D,A,]6 z2 |] %33
w: |||
V:4
 x8 | x8 | A,2 A,2 x4 | x8 | G,2 G,2 G,2 G,2 | x8 | x8 | x8 | x8 | x8 | x8 | x8 | x8 | x8 | %14
 A,4 x4 | x4 || F,2 A,2 | D2 A,2 F,2 D,2 | x8 | x8 | x8 | x8 | x8 | x8 | x8 | D2 A,2 F,2 D,2 | x8 | %27
 x8 | x8 | x8 | x8 | A,4 x4 | x8 |] %33

